outputs/icons/file/open_new_off_round.svg

<svg xmlns="http://www.w3.org/2000/svg" width="1200" height="1200" fill="none"><path fill="#000" d="M839.48 290.003 721.23 171.326c-7.855-7.881-2.27-21.323 8.855-21.323h307.395c6.905 0 12.5 5.597 12.5 12.5v307.246c0 11.147-13.485 16.719-21.35 8.823L910.48 360.003l-204.5 204.502-70.5-70.502zm160.5 310.002c-27.61 0-50 22.385-50 50v158.5l100 100v-258.5c0-27.615-22.385-50-50-50m24.25 494.745c-19.425 19.705-51.185 19.82-70.75.25l-45-44.995H249.982c-55.499 0-100-45-100-100V291.503l-45.249-45.25c-19.469-19.468-19.469-51.032 0-70.5 19.468-19.468 51.031-19.468 70.499 0L1023.98 1024.5c19.37 19.375 19.485 50.745.25 70.25M808.48 950.005l-244-244-44.25 44.25c-19.465 19.465-51.03 19.465-70.497 0-19.469-19.47-19.469-51.035 0-70.5l44.25-44.25-244.001-244.002v558.502zM391.483 250.003H549.98c27.615 0 50-22.386 50-50s-22.385-50-50-50H291.483z"/></svg>

<svg width="1200" height="1200" viewBox="0 0 1200 1200" fill="none" xmlns="http://www.w3.org/2000/svg"><path d="M839.495 290.003L721.24 171.326C713.39 163.445 718.97 150.003 730.095 150.003H1037.495C1044.4 150.003 1049.995 155.6 1049.995 162.503V469.749C1049.995 480.896 1036.51 486.468 1028.64 478.572L910.495 360.003L705.995 564.505L635.495 494.003L839.495 290.003ZM999.995 600.005C972.38 600.005 949.995 622.39 949.995 650.005V808.505L1049.995 908.505V650.005C1049.995 622.39 1027.61 600.005 999.995 600.005ZM1024.245 1094.75C1004.815 1114.455 973.06 1114.57 953.495 1095L908.495 1050.005H249.994C194.494 1050.005 149.995 1005.005 149.995 950.005V291.503L104.745 246.253C85.276 226.785 85.276 195.221 104.745 175.753C124.212 156.285 155.776 156.285 175.245 175.753L1023.995 1024.5C1043.365 1043.875 1043.475 1075.245 1024.245 1094.75ZM808.495 950.005L564.495 706.005L520.245 750.255C500.775 769.72 469.212 769.72 449.745 750.255C430.276 730.785 430.276 699.22 449.745 679.755L493.994 635.505L249.994 391.503V950.005H808.495ZM391.495 250.003H549.995C577.61 250.003 599.995 227.617 599.995 200.003C599.995 172.388 577.61 150.003 549.995 150.003H291.495L391.495 250.003Z" fill="#1D1E23"/></svg>
